X: 32619
T: Play That Lovely Tune
R: waltz
M: 3/4
K: Aminor
E2 A2 c2|c2 c2 Ac|d2 cB A2|A2 A2 A2|A4 c2|E2 A2 c2|cc c2 Ac|
d4 cB|A2 A2 A2|A2 A4|A6||e2 e2 d2|e2 f4|e2 {e}d2 ed|A2 B2 Hc2|
g2 g2 ^f2|g2 a4|g6|{g}f2 e2 d2|gf e4|e2 e2 d2|c2 e2 Hg2|e2 e2 d2|
c2 e2 Hd2|d2 c3 B|A2 c2 e2|f2 e2 c2|e2 d2 c2|B2 A4||

